website/assets/under-construction.svg

<?xml version="1.0" encoding="UTF-8"?>
<svg version="1.1" viewBox="0 0 45 45" width="45px" height="45px" xmlns="http://www.w3.org/2000/svg" xmlns:xlink="http://www.w3.org/1999/xlink">
<title>under_construction</title>
<defs>
<polygon id="a" points="0 0 43.296 0 43.296 38.189 0 38.189"/>
</defs>
<g fill="none" fill-rule="evenodd">
<polygon points="3 39.811 22.5 4.8106 43 39.811" fill="#fff"/>
<g transform="translate(1 3.8106)">
<mask id="b" fill="white">
<use xlink:href="#a"/>
</mask>
<path d="m38.762 34.354h-34.223l17.142-29.581 17.081 29.581zm-35.833 3.8361c-1.058 0.009863-2.02-0.52814-2.537-1.4441-0.528-0.914-0.528-2.007 0.025-2.921l18.763-32.406c0.518-0.877 1.454-1.419 2.477-1.419 1.009 0 1.947 0.542 2.463 1.419l18.813 32.443c0.492 0.889 0.482 1.957-0.024 2.836-0.518 0.903-1.491 1.455-2.539 1.441l-37.441 0.051137z" fill="#E3000F" mask="url(#b)"/>
</g>
<g transform="translate(8.2926 17.814)">
<path d="m11.504 3.643h0.276 0.289l0.096 0.096c0.011 0.096 0.024 0.192 0.047 0.289l-0.192 0.192c-0.083 0.108-0.18 0.216-0.276 0.324s-0.192 0.217-0.289 0.337c-0.072 0.18-0.156 0.372-0.24 0.565v0.565c0.024 0.204 0.06 0.408 0.096 0.625 0.048 0.324 0.096 0.649 0.144 0.986 0.061 0.301 0.12 0.601 0.193 0.9-0.012 0.049-0.025 0.098-0.048 0.145-0.061 0.133-0.12 0.276-0.193 0.421-0.096 0.204-0.192 0.409-0.288 0.625-0.109 0.203-0.216 0.409-0.325 0.612-0.048 0.23-0.096 0.47-0.144 0.711-0.048 0.155-0.096 0.312-0.143 0.468-0.013 0.192-0.025 0.384-0.049 0.578-0.517 0.312-1.035 0.624-1.563 0.937-0.048-0.109-0.096-0.217-0.144-0.325-0.036-0.048-0.084-0.095-0.132-0.144-0.025-0.024-0.061-0.061-0.096-0.096-0.073-0.012-0.157-0.023-0.241-0.049-0.108-0.048-0.216-0.096-0.337-0.143-0.072-0.024-0.144-0.061-0.228-0.096-0.048-0.061-0.096-0.121-0.144-0.181-0.048-0.097-0.096-0.193-0.145-0.289-0.095-0.132-0.191-0.276-0.287-0.421-0.085-0.096-0.181-0.192-0.278-0.288-0.143-0.048-0.288-0.095-0.432-0.144h-0.373c-0.119-0.048-0.252-0.097-0.384-0.146-0.156-0.01-0.313-0.021-0.469-0.047-0.18 0.012-0.373 0.026-0.565 0.047-1.539 2.767-3.089 5.532-4.64 8.296h10.698c-0.096-0.458-0.191-0.914-0.289-1.382-0.119-0.506-0.239-1.01-0.372-1.515-0.193-0.517-0.385-1.035-0.577-1.563-0.132-0.264-0.276-0.528-0.42-0.804 0.517-0.314 1.033-0.625 1.562-0.939h0.517c0.096-0.012 0.192-0.023 0.288-0.049 0.132-0.058 0.277-0.119 0.421-0.191 0.073-0.061 0.156-0.119 0.241-0.193 0.012-0.048 0.023-0.095 0.048-0.144v-0.228c0.613-0.397 1.225-0.794 1.851-1.19-0.205 0.469-0.409 0.938-0.626 1.418v0.528c-0.036 0.662-0.084 1.323-0.132 1.984-0.048 1.083-0.096 2.175-0.144 3.27-0.396 0.133-0.793 0.277-1.19 0.421-0.108 0.06-0.216 0.119-0.324 0.191-0.048 0.012-0.097 0.026-0.145 0.049v0.193 0.095c0.061 0.012 0.12 0.026 0.193 0.049h3.45c0.324-1.67 0.661-3.342 0.997-5.024h-0.145v-0.614c0.578-1.021 1.168-2.043 1.755-3.077 0.061 0.361 0.121 0.721 0.194 1.095 0.035 0.166 0.084 0.335 0.131 0.515 0.072 0.169 0.157 0.337 0.241 0.517 0.109 0.205 0.217 0.409 0.337 0.614 0.072 0.168 0.144 0.347 0.228 0.529 0.109 0.132 0.216 0.276 0.337 0.421 0.119 0.12 0.239 0.251 0.372 0.384 0.216 0.18 0.445 0.372 0.674 0.564 0.589 0.505 1.191 1.01 1.789 1.516 0.267 0.214 0.53 0.432 0.807 0.661 0.023 0.059 0.059 0.12 0.095 0.192-0.011 0.096-0.023 0.192-0.048 0.288-0.024 0.073-0.059 0.145-0.096 0.229-0.047 0.107-0.096 0.218-0.143 0.337-0.253 0.253-0.505 0.504-0.757 0.757v0.096h1.19c0.084-0.049 0.18-0.096 0.275-0.144 0.097-0.024 0.193-0.061 0.288-0.096 0.049-0.097 0.097-0.192 0.146-0.288 0.36-0.59 0.721-1.191 1.094-1.792 0.071-0.192 0.143-0.386 0.227-0.577-0.168-0.061-0.337-0.12-0.516-0.181-0.097-0.061-0.193-0.119-0.289-0.191-0.072-0.073-0.144-0.157-0.229-0.242-0.372-0.421-0.757-0.841-1.142-1.274-0.504-0.576-1.009-1.165-1.514-1.754-0.06 0.047-0.12 0.096-0.193 0.145-0.107-0.11-0.216-0.217-0.323-0.337-0.06-0.073-0.121-0.145-0.193-0.229-0.024-0.108-0.061-0.216-0.096-0.337-0.023-0.264-0.06-0.529-0.097-0.804-0.023-0.326-0.06-0.663-0.095-0.999-0.084-0.324-0.18-0.648-0.278-0.985-0.071-0.218-0.155-0.432-0.239-0.662-0.096-0.253-0.192-0.505-0.29-0.758 0.072-0.058 0.157-0.119 0.241-0.191 0.11 0.06 0.217 0.121 0.337 0.191 0.024-0.023 0.049-0.058 0.084-0.094 0.096-0.06 0.192-0.121 0.288-0.194 0.073-0.047 0.156-0.096 0.24-0.142 0.061-0.073 0.121-0.157 0.194-0.242 0.036-0.036 0.083-0.084 0.132-0.132-0.012-0.096-0.024-0.192-0.049-0.288-0.024-0.049-0.047-0.097-0.083-0.144-0.061-0.062-0.121-0.121-0.194-0.192-0.046-0.026-0.095-0.061-0.142-0.098-0.061-0.215-0.121-0.432-0.194-0.661-0.047-0.312-0.096-0.624-0.143-0.937-0.025-0.096-0.049-0.192-0.084-0.288-0.098-0.228-0.192-0.469-0.29-0.709-0.096-0.218-0.191-0.433-0.288-0.662-0.084-0.156-0.18-0.312-0.277-0.48-0.167-0.157-0.347-0.313-0.528-0.47-0.133-0.107-0.277-0.216-0.421-0.336-0.156-0.036-0.313-0.085-0.481-0.132-0.168-0.012-0.335-0.024-0.517-0.048h-0.517c-0.157 0.012-0.312 0.024-0.468 0.048-0.156 0.036-0.314 0.084-0.482 0.132-0.407 0.145-0.816 0.289-1.225 0.432-0.265 0.121-0.529 0.241-0.806 0.374-0.167 0.095-0.348 0.191-0.529 0.288-0.059-0.024-0.12-0.06-0.18-0.097v-0.144 0.048c0.096-0.276 0.048-0.239 0.048-0.516 0-0.95-0.805-1.804-1.803-1.804s-1.802 0.854-1.802 1.804c0 0.997 0.804 1.839 1.802 1.839 0.048-0.012 0.097-0.024 0.145-0.036-0.013 0.012-0.025 0.024-0.048 0.036" fill="#1A1A18"/>
<polygon points="17.081 3.2827 17.418 3.1857 17.741 3.2337 18.127 3.2827 18.355 3.4147 18.595 3.7507 18.835 4.5087 19.016 4.8817 19.497 6.4447 19.16 6.7197 17.032 3.3667" fill="#fff"/>
<polygon points="13.247 6.7803 13.583 7.0693 14.34 7.9093 14.822 8.5713 14.34 9.6663 11.924 11.071 13.067 9.3763 13.247 9.1343" fill="#fff"/>
</g>
</g>
</svg>

<?xml version="1.0" encoding="UTF-8"?>
<svg width="45px" height="45px" viewBox="0 0 45 45" version="1.1" xmlns="http://www.w3.org/2000/svg" xmlns:xlink="http://www.w3.org/1999/xlink">
    <title>under_construction</title>
    <defs>
        <polygon id="path-1" points="0 0 43.2958586 0 43.2958586 38.1894 0 38.1894"></polygon>
    </defs>
    <g id="Page-1" stroke="none" stroke-width="1" fill="none" fill-rule="evenodd">
        <polygon id="Path-2" fill="#FFFFFF" points="3 39.8106 22.5 4.8106 43 39.8106"></polygon>
        <g id="Group-4510" transform="translate(1, 3.8106)">
            <mask id="mask-2" fill="white">
                <use xlink:href="#path-1"></use>
            </mask>
            <g id="Clip-4509"></g>
            <path d="M38.7625,34.354 L4.5395,34.354 L21.6815,4.773 L38.7625,34.354 Z M2.9295,38.190137 C1.8715,38.2 0.9095,37.662 0.3925,36.746 C-0.1355,35.832 -0.1355,34.739 0.4175,33.825 L19.1805,1.419 C19.6985,0.542 20.6345,0 21.6575,0 C22.6665,0 23.6045,0.542 24.1205,1.419 L42.9335,33.862 C43.4255,34.751 43.4155,35.819 42.9095,36.698 C42.3915,37.601 41.4185,38.153 40.3705,38.139 L2.9295,38.190137 L2.9295,38.190137 Z" id="Fill-4508" fill="#E3000F" mask="url(#mask-2)"></path>
        </g>
        <g id="Group-4517" transform="translate(8.2926, 17.814)">
            <path d="M11.504,3.643 L11.78,3.643 L12.069,3.643 C12.092,3.666 12.129,3.703 12.165,3.739 C12.176,3.835 12.189,3.931 12.212,4.028 C12.153,4.087 12.092,4.148 12.02,4.22 C11.937,4.328 11.84,4.436 11.744,4.544 C11.648,4.652 11.552,4.761 11.455,4.881 C11.383,5.061 11.299,5.253 11.215,5.446 L11.215,6.011 C11.239,6.215 11.275,6.419 11.311,6.636 C11.359,6.96 11.407,7.285 11.455,7.622 C11.516,7.923 11.575,8.223 11.648,8.522 C11.636,8.571 11.623,8.62 11.6,8.667 C11.539,8.8 11.48,8.943 11.407,9.088 C11.311,9.292 11.215,9.497 11.119,9.713 C11.01,9.916 10.903,10.122 10.794,10.325 C10.746,10.555 10.698,10.795 10.65,11.036 C10.602,11.191 10.554,11.348 10.507,11.504 C10.494,11.696 10.482,11.888 10.458,12.082 C9.941,12.394 9.423,12.706 8.895,13.019 C8.847,12.91 8.799,12.802 8.751,12.694 C8.715,12.646 8.667,12.599 8.619,12.55 C8.594,12.526 8.558,12.489 8.523,12.454 C8.45,12.442 8.366,12.431 8.282,12.405 C8.174,12.357 8.066,12.309 7.945,12.262 C7.873,12.238 7.801,12.201 7.717,12.166 C7.669,12.105 7.621,12.045 7.573,11.985 C7.525,11.888 7.477,11.792 7.428,11.696 C7.333,11.564 7.237,11.42 7.141,11.275 C7.056,11.179 6.96,11.083 6.863,10.987 C6.72,10.939 6.575,10.892 6.431,10.843 L6.058,10.843 C5.939,10.795 5.806,10.746 5.674,10.697 C5.518,10.687 5.361,10.676 5.205,10.65 C5.025,10.662 4.832,10.676 4.64,10.697 C3.101,13.464 1.551,16.229 0,18.993 L10.698,18.993 C10.602,18.535 10.507,18.079 10.409,17.611 C10.29,17.105 10.17,16.601 10.037,16.096 C9.844,15.579 9.652,15.061 9.46,14.533 C9.328,14.269 9.184,14.005 9.04,13.729 C9.557,13.415 10.073,13.104 10.602,12.79 L11.119,12.79 C11.215,12.778 11.311,12.767 11.407,12.741 C11.539,12.683 11.684,12.622 11.828,12.55 C11.901,12.489 11.984,12.431 12.069,12.357 C12.081,12.309 12.092,12.262 12.117,12.213 L12.117,11.985 C12.73,11.588 13.342,11.191 13.968,10.795 C13.763,11.264 13.559,11.733 13.342,12.213 L13.342,12.741 C13.306,13.403 13.258,14.064 13.21,14.725 C13.162,15.808 13.114,16.9 13.066,17.995 C12.67,18.128 12.273,18.272 11.876,18.416 C11.768,18.476 11.66,18.535 11.552,18.607 C11.504,18.619 11.455,18.633 11.407,18.656 L11.407,18.849 L11.407,18.944 C11.468,18.956 11.527,18.97 11.6,18.993 L15.05,18.993 C15.374,17.323 15.711,15.651 16.047,13.969 L15.902,13.969 L15.902,13.355 C16.48,12.334 17.07,11.312 17.657,10.278 C17.718,10.639 17.778,10.999 17.851,11.373 C17.886,11.539 17.935,11.708 17.982,11.888 C18.054,12.057 18.139,12.225 18.223,12.405 C18.332,12.61 18.44,12.814 18.56,13.019 C18.632,13.187 18.704,13.366 18.788,13.548 C18.897,13.68 19.004,13.824 19.125,13.969 C19.244,14.089 19.364,14.22 19.497,14.353 C19.713,14.533 19.942,14.725 20.171,14.917 C20.76,15.422 21.362,15.927 21.96,16.433 C22.227,16.647 22.49,16.865 22.767,17.094 C22.79,17.153 22.826,17.214 22.862,17.286 C22.851,17.382 22.839,17.478 22.814,17.574 C22.79,17.647 22.755,17.719 22.718,17.803 C22.671,17.91 22.622,18.021 22.575,18.14 C22.322,18.393 22.07,18.644 21.818,18.897 L21.818,18.993 L23.008,18.993 C23.092,18.944 23.188,18.897 23.283,18.849 C23.38,18.825 23.476,18.788 23.571,18.753 C23.62,18.656 23.668,18.561 23.717,18.465 C24.077,17.875 24.438,17.274 24.811,16.673 C24.882,16.481 24.954,16.287 25.038,16.096 C24.87,16.035 24.701,15.976 24.522,15.915 C24.425,15.854 24.329,15.796 24.233,15.724 C24.161,15.651 24.089,15.567 24.004,15.482 C23.632,15.061 23.247,14.641 22.862,14.208 C22.358,13.632 21.853,13.043 21.348,12.454 C21.288,12.501 21.228,12.55 21.155,12.599 C21.048,12.489 20.939,12.382 20.832,12.262 C20.772,12.189 20.711,12.117 20.639,12.033 C20.615,11.925 20.578,11.817 20.543,11.696 C20.52,11.432 20.483,11.167 20.446,10.892 C20.423,10.566 20.386,10.229 20.351,9.893 C20.267,9.569 20.171,9.245 20.073,8.908 C20.002,8.69 19.918,8.476 19.834,8.246 C19.738,7.993 19.642,7.741 19.544,7.488 C19.616,7.43 19.701,7.369 19.785,7.297 C19.895,7.357 20.002,7.418 20.122,7.488 C20.146,7.465 20.171,7.43 20.206,7.394 C20.302,7.334 20.398,7.273 20.494,7.2 C20.567,7.153 20.65,7.104 20.734,7.058 C20.795,6.985 20.855,6.901 20.928,6.816 C20.964,6.78 21.011,6.732 21.06,6.684 C21.048,6.588 21.036,6.492 21.011,6.396 C20.987,6.347 20.964,6.299 20.928,6.252 C20.867,6.19 20.807,6.131 20.734,6.06 C20.688,6.034 20.639,5.999 20.592,5.962 C20.531,5.747 20.471,5.53 20.398,5.301 C20.351,4.989 20.302,4.677 20.255,4.364 C20.23,4.268 20.206,4.172 20.171,4.076 C20.073,3.848 19.979,3.607 19.881,3.367 C19.785,3.149 19.69,2.934 19.593,2.705 C19.509,2.549 19.413,2.393 19.316,2.225 C19.149,2.068 18.969,1.912 18.788,1.755 C18.655,1.648 18.511,1.539 18.367,1.419 C18.211,1.383 18.054,1.334 17.886,1.287 C17.718,1.275 17.551,1.263 17.369,1.239 L16.852,1.239 C16.695,1.251 16.54,1.263 16.384,1.287 C16.228,1.323 16.07,1.371 15.902,1.419 C15.495,1.564 15.086,1.708 14.677,1.851 C14.412,1.972 14.148,2.092 13.871,2.225 C13.704,2.32 13.523,2.416 13.342,2.513 C13.283,2.489 13.222,2.453 13.162,2.416 L13.162,2.272 L13.162,2.32 C13.258,2.044 13.21,2.081 13.21,1.804 C13.21,0.854 12.405,0 11.407,0 C10.409,0 9.605,0.854 9.605,1.804 C9.605,2.801 10.409,3.643 11.407,3.643 C11.455,3.631 11.504,3.619 11.552,3.607 C11.539,3.619 11.527,3.631 11.504,3.643" id="Fill-4511" fill="#1A1A18"></path>
            <polygon id="Fill-4513" fill="#FFFFFF" points="17.0812 3.2827 17.4182 3.1857 17.7412 3.2337 18.1272 3.2827 18.3552 3.4147 18.5952 3.7507 18.8352 4.5087 19.0162 4.8817 19.4972 6.4447 19.1602 6.7197 17.0322 3.3667"></polygon>
            <polygon id="Fill-4515" fill="#FFFFFF" points="13.2467 6.7803 13.5827 7.0693 14.3397 7.9093 14.8217 8.5713 14.3397 9.6663 11.9237 11.0713 13.0667 9.3763 13.2467 9.1343"></polygon>
        </g>
    </g>
</svg>
